image/logo.svg

<svg fill="none" height="69" viewBox="0 0 506 69" width="506" xmlns="http://www.w3.org/2000/svg"><g fill="#ff4d00" stroke="#ff4d00" stroke-miterlimit="10" stroke-width=".58815"><path d="m247.965 49.9622-11.845-45.57719h8.252l13.547 55.80849c-2.437-.6307-4.654-1.9182-6.409-3.7224-1.756-1.8042-2.982-4.0556-3.545-6.5089zm10.944 14.2671-.99-4.0358c3.36.8307 6.871.8307 10.231 0l-.99 4.0358c-.54 2.4228-1.703 4.0358-4.153 4.0358-2.451 0-3.468-1.5991-4.098-4.022zm22.698-59.83045h8.252l-11.768 45.57715c-.564 2.4533-1.79 4.7048-3.545 6.5089-1.756 1.8042-3.973 3.0918-6.41 3.7225z"/><path d="m296.684 22.2726v-17.87367h40.842v6.45867h-33.304v20.6357c-5.655-.63-7.538-3.4059-7.538-9.2207zm0 25.1215c0-4.8457 1.883-8.4316 7.538-9.3315v22.6986h34.183v6.4656h-41.721zm7.538-15.8801c.921.0775 1.845.1075 2.769.09h28.798v6.2786h-28.798c-.925.0098-1.85.0699-2.769.18z"/><path d="m407.595 46.3903h8.702c-.148 1.3097-.208 2.6279-.18 3.9457-.108 3.2557.474 6.4972 1.709 9.5114-6.257-2.2705-10.113-6.424-10.231-13.4571zm39.389 8.2515c0-8.1615-4.154-11.7681-12.115-14.8001l-12.114-4.6657c-7.801-3.0528-13.457-6.7286-13.457-13.1042 0-4.8457 2.693-8.2515 7.448-10.2244-.465 1.335-.699 2.7397-.692 4.1535 0 6.9985 3.773 9.6913 12.114 12.9172l12.115 4.7557c8.161 3.2328 13.457 7.8085 13.457 14.6271 0 4.9356-2.513 8.7914-7.539 11.1243.556-1.5326.831-3.1532.81-4.7834zm-16.51-51.31587c6.818 0 11.304 2.76896 13.367 8.43147-4.386-1.5066-9.001-2.2352-13.637-2.15284-5.386 0-9.962.69224-13.458 2.24284 1.731-4.84567 6.397-8.52147 13.755-8.52147zm-12.648 56.52147c4.154 1.433 9.152 2.0768 14.711 2.0768 5.558 0 10.231-.9 13.637-2.5129-1.793 5.1157-6.549 8.8815-14.177 8.8815-6.791-.0139-11.637-2.9767-14.143-8.4454zm27.275-39.8385c.055-2.8023-.372-5.5932-1.26-8.2515 5.745 2.1529 9.601 6.0087 9.781 11.5743h-8.646c.062-1.1699.152-2.2429.152-3.3228z"/><path d="m463.985 22.2726v-17.87367h40.842v6.45867h-33.303v20.6357c-5.656-.63-7.539-3.4059-7.539-9.2207zm0 25.1215c0-4.8457 1.883-8.4316 7.539-9.3315v22.6986h34.182v6.4656h-41.721zm7.539-15.8801c.92.0775 1.845.1075 2.768.09h28.832v6.2786h-28.797c-.925.0098-1.85.0699-2.769.18z"/><path d="m401.711 29.195c0 15.61-12.702 28.0773-29.011 28.0773-16.427 0-29.123-12.4603-29.123-28.0773 0-15.7277 12.696-28.195 29.123-28.195 16.309-.00692 29.011 12.4603 29.011 28.195zm-6.174 0c0-12.7026-9.906-22.48402-22.844-22.48402-13.049 0-22.955 9.78142-22.955 22.48402 0 12.5849 9.906 22.2486 22.955 22.2486 12.938-.0069 22.844-9.6706 22.844-22.2486zm-11.076 10.1344c-.025 1.5506.462 3.0662 1.384 4.3127h-6.057c-.817-1.0522-1.052-2.4506-1.17-4.3127l-.228-3.0251c-.236-3.1497-1.052-4.195-3.967-4.195h-7.199v11.5328h-5.829v-29.718h12.973c6.521 0 10.598 3.0321 10.598 8.5077 0 2.769-1.163 5.4756-4.313 6.874 2.451 1.0452 3.378 3.0251 3.496 5.8217zm-10.017-12.2111c2.769 0 4.43-1.516 4.43-3.9597 0-2.6789-1.633-3.9596-4.776-3.9596h-6.874v7.9193z"/><path d="m73.9345 4.1842v63.347h-16.8837v-17.9982c0-10.5913.09-19.4867.533-29.628-1.156 4.6242-2.2221 8.7153-3.7312 14.0525l-9.1653 33.546h-14.4124l-9.1653-33.546c-1.516-5.3372-2.5821-9.4283-3.7381-14.0525.443 10.1413.533 19.0367.533 29.628v17.9982h-16.9045v-63.347h27.2466l6.0502 24.0208c1.066 4.3611 2.2221 9.0753 3.2051 13.6164.976-4.5411 2.1321-9.2553 3.1981-13.6164l6.0502-24.0208z"/><path d="m83.0515 4.1842h17.7975v63.347h-17.7975z"/><path d="m167.325 4.1842v63.347h-18.773l-13.437-22.5117c-3.288-5.6071-6.05-10.2313-8.715-15.6585.353 9.4284.443 17.8806.443 27.8489v10.3213h-16.912v-63.347h18.774l13.436 22.5117c2.576 4.3542 5.961 10.2313 8.716 15.7416-.353-9.4284-.443-17.9983-.443-27.932v-10.3213z"/><path d="m228.713 20.0227h-18.691v47.5085h-17.784v-47.5085h-18.69v-15.8385h55.158z"/></g></svg>

<svg width="506" height="69" viewBox="0 0 506 69" fill="none" xmlns="http://www.w3.org/2000/svg">
<path d="M247.965 49.9622L236.12 4.38501H244.372L257.919 60.1935C255.482 59.5628 253.265 58.2753 251.51 56.4711C249.754 54.6669 248.528 52.4155 247.965 49.9622ZM258.909 64.2293L257.919 60.1935C261.279 61.0242 264.79 61.0242 268.15 60.1935L267.16 64.2293C266.62 66.6521 265.457 68.2651 263.007 68.2651C260.556 68.2651 259.539 66.666 258.909 64.2431V64.2293ZM281.607 4.39885H289.859L278.091 49.976C277.527 52.4293 276.301 54.6808 274.546 56.4849C272.79 58.2891 270.573 59.5767 268.136 60.2074L281.607 4.39885Z" fill="#FF4D00" stroke="#FF4D00" stroke-width="0.58815" stroke-miterlimit="10"/>
<path d="M296.684 22.2726V4.39893H337.526V10.8576H304.222V31.4933C298.567 30.8633 296.684 28.0874 296.684 22.2726ZM296.684 47.3941C296.684 42.5484 298.567 38.9625 304.222 38.0626V60.7612H338.405V67.2268H296.684V47.3941ZM304.222 31.514C305.143 31.5915 306.067 31.6215 306.991 31.604H335.789V37.8826H306.991C306.066 37.8924 305.141 37.9525 304.222 38.0626V31.514Z" fill="#FF4D00" stroke="#FF4D00" stroke-width="0.58815" stroke-miterlimit="10"/>
<path d="M407.595 46.3903H416.297C416.149 47.7 416.089 49.0182 416.117 50.336C416.009 53.5917 416.591 56.8332 417.826 59.8474C411.569 57.5769 407.713 53.4234 407.595 46.3903ZM446.984 54.6418C446.984 46.4803 442.83 42.8737 434.869 39.8417L422.755 35.176C414.954 32.1232 409.298 28.4474 409.298 22.0718C409.298 17.2261 411.991 13.8203 416.746 11.8474C416.281 13.1824 416.047 14.5871 416.054 16.0009C416.054 22.9994 419.827 25.6922 428.168 28.9181L440.283 33.6738C448.444 36.9066 453.74 41.4823 453.74 48.3009C453.74 53.2365 451.227 57.0923 446.201 59.4252C446.757 57.8926 447.032 56.272 447.011 54.6418H446.984ZM430.474 3.32593C437.292 3.32593 441.778 6.09489 443.841 11.7574C439.455 10.2508 434.84 9.5222 430.204 9.60456C424.818 9.60456 420.242 10.2968 416.746 11.8474C418.477 7.00173 423.143 3.32593 430.501 3.32593H430.474ZM417.826 59.8474C421.98 61.2804 426.978 61.9242 432.537 61.9242C438.095 61.9242 442.768 61.0242 446.174 59.4113C444.381 64.527 439.625 68.2928 431.997 68.2928C425.206 68.2789 420.36 65.3161 417.854 59.8474H417.826ZM445.101 20.0089C445.156 17.2066 444.729 14.4157 443.841 11.7574C449.586 13.9103 453.442 17.7661 453.622 23.3317H444.976C445.038 22.1618 445.128 21.0888 445.128 20.0089H445.101Z" fill="#FF4D00" stroke="#FF4D00" stroke-width="0.58815" stroke-miterlimit="10"/>
<path d="M463.985 22.2726V4.39893H504.827V10.8576H471.524V31.4933C465.868 30.8633 463.985 28.0874 463.985 22.2726ZM463.985 47.3941C463.985 42.5484 465.868 38.9625 471.524 38.0626V60.7612H505.706V67.2268H463.985V47.3941ZM471.524 31.514C472.444 31.5915 473.369 31.6215 474.292 31.604H503.124V37.8826H474.327C473.402 37.8924 472.477 37.9525 471.558 38.0626L471.524 31.514Z" fill="#FF4D00" stroke="#FF4D00" stroke-width="0.58815" stroke-miterlimit="10"/>
<path d="M401.711 29.195C401.711 44.805 389.009 57.2723 372.7 57.2723C356.273 57.2723 343.577 44.812 343.577 29.195C343.577 13.4673 356.273 1 372.7 1C389.009 0.99308 401.711 13.4603 401.711 29.195ZM395.537 29.195C395.537 16.4924 385.631 6.71098 372.693 6.71098C359.644 6.71098 349.738 16.4924 349.738 29.195C349.738 41.7799 359.644 51.4436 372.693 51.4436C385.631 51.4367 395.537 41.773 395.537 29.195ZM384.461 39.3294C384.436 40.88 384.923 42.3956 385.845 43.6421H379.788C378.971 42.5899 378.736 41.1915 378.618 39.3294L378.39 36.3043C378.154 33.1546 377.338 32.1093 374.423 32.1093H367.224V43.6421H361.395V13.9241H374.368C380.889 13.9241 384.966 16.9562 384.966 22.4318C384.966 25.2008 383.803 27.9074 380.653 29.3058C383.104 30.351 384.031 32.3309 384.149 35.1275L384.461 39.3294ZM374.444 27.1183C377.213 27.1183 378.874 25.6023 378.874 23.1586C378.874 20.4797 377.241 19.199 374.098 19.199H367.224V27.1183H374.444Z" fill="#FF4D00" stroke="#FF4D00" stroke-width="0.58815" stroke-miterlimit="10"/>
<path d="M73.9345 4.1842V67.5312H57.0508V49.533C57.0508 38.9417 57.1408 30.0463 57.5838 19.905C56.4278 24.5292 55.3617 28.6203 53.8526 33.9575L44.6873 67.5035H30.2749L21.1096 33.9575C19.5936 28.6203 18.5275 24.5292 17.3715 19.905C17.8145 30.0463 17.9045 38.9417 17.9045 49.533V67.5312H1V4.1842H28.2466L34.2968 28.205C35.3628 32.5661 36.5189 37.2803 37.5019 41.8214C38.4779 37.2803 39.634 32.5661 40.7 28.205L46.7502 4.1842H73.9345Z" fill="#FF4D00" stroke="#FF4D00" stroke-width="0.58815" stroke-miterlimit="10"/>
<path d="M83.0515 4.1842H100.849V67.5312H83.0515V4.1842Z" fill="#FF4D00" stroke="#FF4D00" stroke-width="0.58815" stroke-miterlimit="10"/>
<path d="M167.325 4.1842V67.5312H148.552L135.115 45.0195C131.827 39.4124 129.065 34.7882 126.4 29.361C126.753 38.7894 126.843 47.2416 126.843 57.2099V67.5312H109.931V4.1842H128.705L142.141 26.6959C144.717 31.0501 148.102 36.9272 150.857 42.4375C150.504 33.0091 150.414 24.4392 150.414 14.5055V4.1842H167.325Z" fill="#FF4D00" stroke="#FF4D00" stroke-width="0.58815" stroke-miterlimit="10"/>
<path d="M228.713 20.0227H210.022V67.5312H192.238V20.0227H173.548V4.1842H228.706L228.713 20.0227Z" fill="#FF4D00" stroke="#FF4D00" stroke-width="0.58815" stroke-miterlimit="10"/>
</svg>
